korla/apps/scalable/gnome-mahjongg.svg

<!DOCTYPE svg  PUBLIC '-//W3C//DTD SVG 1.1//EN'  'http://www.w3.org/Graphics/SVG/1.1/DTD/svg11.dtd'>
<svg style="clip-rule:evenodd;fill-rule:evenodd;stroke-linejoin:round;stroke-miterlimit:1.41421" version="1.1" viewBox="0 0 48 48" xmlns="http://www.w3.org/2000/svg">
 <path d="m8 3h32c1.108 0 2 0.892 2 2v40c0 1.108-0.892 2-2 2h-32c-1.108 0-2-0.892-2-2v-40c0-1.108 0.892-2 2-2z" style="fill-opacity:.666667;fill-rule:nonzero"/>
 <path d="m8 2h32c1.108 0 2 0.892 2 2v40c0 1.108-0.892 2-2 2h-32c-1.108 0-2-0.892-2-2v-40c0-1.108 0.892-2 2-2z" style="fill-rule:nonzero;fill:url(#_Linear1)"/>
 <g transform="matrix(1.39982,0,0,1.39982,-9.88055,-9.15413)">
  <path d="m20.384 32.92c-0.065 0.032-0.033 0.112 0.096 0.241 0.739 0.273 1.51 0.723 2.313 1.349 0.097 0.193 0.386 0.321 0.868 0.386 0.353-0.177 0.498-0.611 0.434-1.302-0.097-1.815-0.193-3.655-0.289-5.518v-2.169c0.032-0.563 0.273-0.892 0.723-0.988 0.449-0.113 0.915-0.201 1.397-0.265 0.354-0.065 0.691-0.257 1.013-0.579 0.755-0.771 1.542-1.478 2.361-2.121 0.98-0.546 1.51-1.365 1.591-2.458-0.032-0.594-0.257-1.092-0.675-1.494-0.418-0.401-0.9-0.61-1.446-0.626-0.771 0.032-1.51 0.168-2.217 0.409-0.691 0.225-1.414 0.362-2.169 0.41l-0.289-0.193c0.064-1.012 0.201-1.711 0.409-2.096 0.225-0.386 0.812-0.571 1.76-0.555 0.209 0.016 0.458-8e-3 0.747-0.072 0.305-0.08 0.474-0.233 0.506-0.458-0.129-0.418-0.587-0.618-1.374-0.602s-1.165 0.024-1.132 0.024c-0.145-0.097-0.209-0.193-0.193-0.289-0.016-0.37 0-0.627 0.048-0.772 0.064-0.273 0.112-0.578 0.145-0.915-0.129-1.029-0.691-1.478-1.687-1.35 0.064 0.08 0.176 0.273 0.337 0.578 0.145 0.193 0.193 0.434 0.145 0.723v1.736c-0.113 0.674-0.603 1.1-1.47 1.277-0.852 0.16-1.503 0.313-1.952 0.458 0.498 0.417 1.269 0.642 2.313 0.674 0.129-0.064 0.337 0.017 0.627 0.241v1.591c-0.595 0.386-1.245 0.602-1.952 0.651-0.691 0.048-1.374 0.12-2.049 0.217v0.241c0.498 0.289 1.044 0.433 1.639 0.433 0.755 0.032 1.446-0.112 2.072-0.433 0.145 0.016 0.241 0.096 0.29 0.241 0.321 1.478-0.241 2.249-1.687 2.313-0.048 0.064-0.048 0.129 0 0.193 0.578-0.016 0.956 0.056 1.132 0.217 0.193 0.16 0.282 0.538 0.265 1.132-0.048 0.852-0.361 1.35-0.939 1.495-0.563 0.128-1.197 0.289-1.904 0.482-0.113 0.08-0.129 0.16-0.048 0.241 0.498 0.257 1.14 0.337 1.927 0.241 0.161 0 0.209 0.16 0.145 0.482-1.558 2.634-3.567 4.651-6.025 6.048-0.225 0.161-0.128 0.209 0.29 0.145 1.317-0.402 2.482-1.084 3.494-2.048 1.012-0.98 1.92-2.025 2.723-3.133 0.08-0.129 0.145-0.161 0.193-0.097 0.45 0.643 0.594 1.382 0.434 2.217v1.591c0 0.386-0.049 0.827-0.145 1.325-0.08 0.498-0.225 0.772-0.434 0.82-0.53-0.065-0.932-0.129-1.205-0.193-0.514-0.032-0.899-0.064-1.156-0.096zm3.422-12.17c0.096-0.515 0.144-1.029 0.144-1.543 0.064-0.241 0.273-0.385 0.627-0.434 1.333-0.305 2.667-0.61 4-0.915 0.145-0.033 0.346 8e-3 0.603 0.12 0.273 0.097 0.361 0.329 0.265 0.699-0.53 1.526-1.221 2.972-2.073 4.338-0.369 0.418-0.755 0.642-1.156 0.675-0.981-0.016-1.784 0.16-2.41 0.53-0.129-0.016-0.209-0.113-0.241-0.289 0.064-0.932 0.168-1.519 0.313-1.76 0.145-0.257 0.667-0.474 1.566-0.65 0.193-0.065 0.322-0.209 0.386-0.434 0.016-0.193-0.064-0.321-0.241-0.386-0.723 0.097-1.269 0.193-1.639 0.29-0.08-0.033-0.128-0.113-0.144-0.241zm-4.483 2.94c-0.016-0.884-0.249-1.687-0.699-2.41-0.433-0.723-1.036-1.173-1.807-1.35 0.241 0.884 0.498 1.759 0.771 2.627 0.289 0.868 0.739 1.663 1.35 2.386h0.192c0.129-0.322 0.193-0.739 0.193-1.253zm6.025 4.048c-0.45-0.016-0.53 0.032-0.241 0.145 1.076 0.45 2.33 1.06 3.759 1.831 1.43 0.772 2.764 1.495 4.001 2.169 0.353 0.129 0.514-0.128 0.482-0.771-0.032-0.514-0.37-0.972-1.012-1.374-0.643-0.401-1.422-0.739-2.338-1.012-0.916-0.289-1.807-0.514-2.675-0.674-0.851-0.161-1.51-0.266-1.976-0.314z" style="fill-rule:nonzero;fill:url(#_Linear2)"/>
 </g>
 <defs>
  <linearGradient id="_Linear1" x2="1" gradientTransform="matrix(.21687 -42.6667 42.6667 .21687 26.3855 45.3333)" gradientUnits="userSpaceOnUse">
   <stop style="stop-color:rgb(185,171,143)" offset="0"/>
   <stop style="stop-color:rgb(245,244,241)" offset="1"/>
  </linearGradient>
  <linearGradient id="_Linear2" x2="1" gradientTransform="matrix(1.51777e-15,24.7871,-24.7871,1.51777e-15,24.2035,10.8957)" gradientUnits="userSpaceOnUse">
   <stop style="stop-color:rgb(0,157,255)" offset="0"/>
   <stop style="stop-color:rgb(0,85,212)" offset="1"/>
  </linearGradient>
 </defs>
</svg>

<?xml version="1.0" encoding="UTF-8" standalone="no"?>
<!DOCTYPE svg PUBLIC "-//W3C//DTD SVG 1.1//EN" "http://www.w3.org/Graphics/SVG/1.1/DTD/svg11.dtd">
<svg width="100%" height="100%" viewBox="0 0 48 48" version="1.1" xmlns="http://www.w3.org/2000/svg" xmlns:xlink="http://www.w3.org/1999/xlink" xml:space="preserve" xmlns:serif="http://www.serif.com/" style="fill-rule:evenodd;clip-rule:evenodd;stroke-linejoin:round;stroke-miterlimit:1.41421;">
    <path d="M8,3L40,3C41.108,3 42,3.892 42,5L42,45C42,46.108 41.108,47 40,47L8,47C6.892,47 6,46.108 6,45L6,5C6,3.892 6.892,3 8,3Z" style="fill-opacity:0.666667;fill-rule:nonzero;"/>
    <path d="M8,2L40,2C41.108,2 42,2.892 42,4L42,44C42,45.108 41.108,46 40,46L8,46C6.892,46 6,45.108 6,44L6,4C6,2.892 6.892,2 8,2Z" style="fill:url(#_Linear1);fill-rule:nonzero;"/>
    <g transform="matrix(1.39982,0,0,1.39982,-9.88055,-9.15413)">
        <path d="M20.384,32.92C20.319,32.952 20.351,33.032 20.48,33.161C21.219,33.434 21.99,33.884 22.793,34.51C22.89,34.703 23.179,34.831 23.661,34.896C24.014,34.719 24.159,34.285 24.095,33.594C23.998,31.779 23.902,29.939 23.806,28.076L23.806,25.907C23.838,25.344 24.079,25.015 24.529,24.919C24.978,24.806 25.444,24.718 25.926,24.654C26.28,24.589 26.617,24.397 26.939,24.075C27.694,23.304 28.481,22.597 29.3,21.954C30.28,21.408 30.81,20.589 30.891,19.496C30.859,18.902 30.634,18.404 30.216,18.002C29.798,17.601 29.316,17.392 28.77,17.376C27.999,17.408 27.26,17.544 26.553,17.785C25.862,18.01 25.139,18.147 24.384,18.195L24.095,18.002C24.159,16.99 24.296,16.291 24.504,15.906C24.729,15.52 25.316,15.335 26.264,15.351C26.473,15.367 26.722,15.343 27.011,15.279C27.316,15.199 27.485,15.046 27.517,14.821C27.388,14.403 26.93,14.203 26.143,14.219C25.356,14.235 24.978,14.243 25.011,14.243C24.866,14.146 24.802,14.05 24.818,13.954C24.802,13.584 24.818,13.327 24.866,13.182C24.93,12.909 24.978,12.604 25.011,12.267C24.882,11.238 24.32,10.789 23.324,10.917C23.388,10.997 23.5,11.19 23.661,11.495C23.806,11.688 23.854,11.929 23.806,12.218L23.806,13.954C23.693,14.628 23.203,15.054 22.336,15.231C21.484,15.391 20.833,15.544 20.384,15.689C20.882,16.106 21.653,16.331 22.697,16.363C22.826,16.299 23.034,16.38 23.324,16.604L23.324,18.195C22.729,18.581 22.079,18.797 21.372,18.846C20.681,18.894 19.998,18.966 19.323,19.063L19.323,19.304C19.821,19.593 20.367,19.737 20.962,19.737C21.717,19.769 22.408,19.625 23.034,19.304C23.179,19.32 23.275,19.4 23.324,19.545C23.645,21.023 23.083,21.794 21.637,21.858C21.589,21.922 21.589,21.987 21.637,22.051C22.215,22.035 22.593,22.107 22.769,22.268C22.962,22.428 23.051,22.806 23.034,23.4C22.986,24.252 22.673,24.75 22.095,24.895C21.532,25.023 20.898,25.184 20.191,25.377C20.078,25.457 20.062,25.537 20.143,25.618C20.641,25.875 21.283,25.955 22.07,25.859C22.231,25.859 22.279,26.019 22.215,26.341C20.657,28.975 18.648,30.992 16.19,32.389C15.965,32.55 16.062,32.598 16.48,32.534C17.797,32.132 18.962,31.45 19.974,30.486C20.986,29.506 21.894,28.461 22.697,27.353C22.777,27.224 22.842,27.192 22.89,27.256C23.34,27.899 23.484,28.638 23.324,29.473L23.324,31.064C23.324,31.45 23.275,31.891 23.179,32.389C23.099,32.887 22.954,33.161 22.745,33.209C22.215,33.144 21.813,33.08 21.54,33.016C21.026,32.984 20.641,32.952 20.384,32.92L20.384,32.92ZM23.806,20.75C23.902,20.235 23.95,19.721 23.95,19.207C24.014,18.966 24.223,18.822 24.577,18.773C25.91,18.468 27.244,18.163 28.577,17.858C28.722,17.825 28.923,17.866 29.18,17.978C29.453,18.075 29.541,18.307 29.445,18.677C28.915,20.203 28.224,21.649 27.372,23.015C27.003,23.433 26.617,23.657 26.216,23.69C25.235,23.674 24.432,23.85 23.806,24.22C23.677,24.204 23.597,24.107 23.565,23.931C23.629,22.999 23.733,22.412 23.878,22.171C24.023,21.914 24.545,21.697 25.444,21.521C25.637,21.456 25.766,21.312 25.83,21.087C25.846,20.894 25.766,20.766 25.589,20.701C24.866,20.798 24.32,20.894 23.95,20.991C23.87,20.958 23.822,20.878 23.806,20.75ZM19.323,23.69C19.307,22.806 19.074,22.003 18.624,21.28C18.191,20.557 17.588,20.107 16.817,19.93C17.058,20.814 17.315,21.689 17.588,22.557C17.877,23.425 18.327,24.22 18.938,24.943L19.13,24.943C19.259,24.621 19.323,24.204 19.323,23.69ZM25.348,27.738C24.898,27.722 24.818,27.77 25.107,27.883C26.183,28.333 27.437,28.943 28.866,29.714C30.296,30.486 31.63,31.209 32.867,31.883C33.22,32.012 33.381,31.755 33.349,31.112C33.317,30.598 32.979,30.14 32.337,29.738C31.694,29.337 30.915,28.999 29.999,28.726C29.083,28.437 28.192,28.212 27.324,28.052C26.473,27.891 25.814,27.786 25.348,27.738Z" style="fill:url(#_Linear2);fill-rule:nonzero;"/>
    </g>
    <defs>
        <linearGradient id="_Linear1" x1="0" y1="0" x2="1" y2="0" gradientUnits="userSpaceOnUse" gradientTransform="matrix(0.21687,-42.6667,42.6667,0.21687,26.3855,45.3333)"><stop offset="0" style="stop-color:rgb(185,171,143);stop-opacity:1"/><stop offset="1" style="stop-color:rgb(245,244,241);stop-opacity:1"/></linearGradient>
        <linearGradient id="_Linear2" x1="0" y1="0" x2="1" y2="0" gradientUnits="userSpaceOnUse" gradientTransform="matrix(1.51777e-15,24.7871,-24.7871,1.51777e-15,24.2035,10.8957)"><stop offset="0" style="stop-color:rgb(0,157,255);stop-opacity:1"/><stop offset="1" style="stop-color:rgb(0,85,212);stop-opacity:1"/></linearGradient>
    </defs>
</svg>
